;FLAVOR:Marlin
;TIME:1481
;Filament used: 0.700042m
;Layer height: 0.15
;MINX:89.241
;MINY:89.246
;MINZ:0.15
;MAXX:145.752
;MAXY:145.756
;MAXZ:3
;TARGET_MACHINE.NAME:Creality Ender-3
;Generated with Cura_SteamEngine 5.6.0
M140 S75
M105
M190 S75
M104 S235
M105
M109 S235
M82 ;absolute extrusion mode
; Ender 3 Custom Start G-code
G92 E0 ; Reset Extruder
G28 ; Home all axes
G29 ; Mesh Bed Leveling

G0 X235 Y0 Z10 F3000 ; Move To Priming Position
G0 Z2 ; Move Down
G1 E20 F1500 ;Prime The Nozzle

G0 X225 Y0 F3000 ; Move To The Left
G0 X225 Y10 ; Move To THe Front
G0 X235 Y10 ; Move To THe Right
G0 X235 Y0 ; Move To THe Back

G0 X225 Y0 ; Move To The Left
G0 X225 Y10 ; Move To THe Front
G0 X235 Y10 ; Move To THe Right
G0 X235 Y0 ; Move To THe Back

G0 X225 Y10 ; Move Over The Flap
G92 E0
G92 E0
G1 F2700 E-1
;LAYER_COUNT:20
;LAYER:0
M107
G0 F6000 X97.21 Y97.83 Z0.15
;TYPE:SKIRT
G1 F2700 E0
G1 F900 X97.892 Y97.152 E0.02699
G1 X98.416 Y96.659 E0.04718
G1 X99.163 Y96 E0.07513
G1 X99.951 Y95.351 E0.10378
G1 X100.699 Y94.777 E0.13024
G1 X101.288 Y94.355 E0.15057
G1 X102.121 Y93.791 E0.17881
G1 X102.716 Y93.417 E0.19853
G1 X103.3 Y93.068 E0.21762
G1 X103.874 Y92.744 E0.23612
G1 X104.788 Y92.263 E0.2651
G1 X105.415 Y91.956 E0.28469
G1 X106.283 Y91.564 E0.31142
G1 X107.248 Y91.167 E0.34071
G1 X108.182 Y90.822 E0.36865
G1 X108.853 Y90.599 E0.38849
G1 X109.458 Y90.412 E0.40626
G1 X110.19 Y90.205 E0.42761
G1 X111.106 Y89.978 E0.45409
G1 X112.145 Y89.756 E0.48391
G1 X113.06 Y89.594 E0.50999
G1 X113.755 Y89.493 E0.52969
G1 X114.745 Y89.379 E0.55766
G1 X115.472 Y89.317 E0.57814
G1 X116.129 Y89.277 E0.59661
G1 X116.874 Y89.251 E0.61753
G1 X117.807 Y89.246 E0.64371
G1 X118.526 Y89.263 E0.66389
G1 X119.517 Y89.317 E0.69175
G1 X120.218 Y89.375 E0.71149
G1 X121.195 Y89.488 E0.73909
G1 X121.911 Y89.591 E0.75939
G1 X122.845 Y89.755 E0.786
G1 X123.57 Y89.903 E0.80676
G1 X124.508 Y90.128 E0.83383
G1 X125.183 Y90.308 E0.85344
G1 X126.125 Y90.594 E0.88107
G1 X126.829 Y90.83 E0.9019
G1 X127.714 Y91.156 E0.92837
G1 X128.357 Y91.414 E0.94781
G1 X129.324 Y91.839 E0.97746
G1 X130.208 Y92.263 E1.00497
G1 X131.07 Y92.716 E1.0323
G1 X131.789 Y93.126 E1.05552
G1 X132.648 Y93.652 E1.08379
G1 X133.092 Y93.939 E1.09863
G1 X133.99 Y94.558 E1.12924
G1 X134.517 Y94.946 E1.1476
G1 X135.018 Y95.333 E1.16537
G1 X135.596 Y95.802 E1.18626
G1 X136.326 Y96.433 E1.21333
G1 X136.843 Y96.906 E1.233
G1 X137.551 Y97.594 E1.2607
G1 X138.064 Y98.125 E1.28142
G1 X138.899 Y99.051 E1.31642
G1 X139.363 Y99.606 E1.33672
G1 X139.964 Y100.367 E1.36393
G1 X140.434 Y101 E1.38605
G1 X140.957 Y101.75 E1.41171
G1 X141.35 Y102.353 E1.43191
G1 X141.676 Y102.881 E1.44933
G1 X142.04 Y103.5 E1.46948
G1 X142.541 Y104.418 E1.49883
G1 X142.881 Y105.088 E1.51991
G1 X143.242 Y105.857 E1.54375
G1 X143.533 Y106.522 E1.56412
G1 X143.924 Y107.506 E1.59384
G1 X144.273 Y108.474 E1.62271
G1 X144.555 Y109.356 E1.6487
G1 X144.747 Y110.029 E1.66834
G1 X144.934 Y110.756 E1.68941
G1 X145.052 Y111.262 E1.70399
G1 X145.334 Y112.66 E1.74401
G1 X145.449 Y113.377 E1.76439
G1 X145.571 Y114.305 E1.79066
G1 X145.653 Y115.154 E1.81459
G1 X145.718 Y116.119 E1.84174
G1 X145.74 Y116.657 E1.85685
G1 X145.752 Y117.407 E1.8779
G1 X145.747 Y118.109 E1.8976
G1 X145.709 Y119.066 E1.92447
G1 X145.63 Y120.125 E1.95428
G1 X145.529 Y121.037 E1.98003
G1 X145.396 Y121.958 E2.00614
G1 X145.231 Y122.891 E2.03273
G1 X145.131 Y123.386 E2.0469
G1 X144.886 Y124.444 E2.07738
G1 X144.714 Y125.082 E2.09592
G1 X144.427 Y126.049 E2.12423
G1 X144.207 Y126.715 E2.14391
G1 X143.885 Y127.602 E2.17039
G1 X143.627 Y128.253 E2.19005
G1 X143.33 Y128.946 E2.2112
G1 X143.034 Y129.596 E2.23125
G1 X142.642 Y130.388 E2.25605
G1 X142.144 Y131.316 E2.2856
G1 X141.636 Y132.186 E2.31388
G1 X141.266 Y132.777 E2.33344
G1 X140.71 Y133.611 E2.36157
G1 X140.341 Y134.129 E2.37942
G1 X139.92 Y134.692 E2.39915
G1 X139.472 Y135.262 E2.41949
G1 X138.841 Y136.015 E2.44706
G1 X138.353 Y136.564 E2.46768
G1 X137.705 Y137.251 E2.49418
G1 X137.199 Y137.754 E2.5142
G1 X136.482 Y138.428 E2.54182
G1 X135.709 Y139.103 E2.57062
G1 X134.927 Y139.74 E2.59892
G1 X134.374 Y140.161 E2.61843
G1 X133.628 Y140.699 E2.64424
G1 X133.017 Y141.111 E2.66492
G1 X132.143 Y141.664 E2.69394
G1 X131.537 Y142.02 E2.71367
G1 X130.692 Y142.486 E2.74075
G1 X130.048 Y142.814 E2.76103
G1 X129.199 Y143.219 E2.78743
G1 X128.589 Y143.487 E2.80613
G1 X127.889 Y143.775 E2.82737
G1 X127.224 Y144.029 E2.84734
G1 X126.315 Y144.344 E2.87434
G1 X125.324 Y144.65 E2.90345
G1 X124.397 Y144.902 E2.93041
G1 X123.702 Y145.066 E2.95045
G1 X123.072 Y145.2 E2.96852
G1 X122.327 Y145.341 E2.9898
G1 X121.417 Y145.481 E3.01564
G1 X120.682 Y145.576 E3.03644
G1 X119.721 Y145.668 E3.06353
G1 X119.023 Y145.715 E3.08316
G1 X118.005 Y145.751 E3.11175
G1 X117.274 Y145.756 E3.13226
G1 X116.341 Y145.731 E3.15845
G1 X115.292 Y145.669 E3.18794
G1 X114.324 Y145.577 E3.21523
G1 X113.636 Y145.491 E3.23469
G1 X112.628 Y145.333 E3.26332
G1 X111.967 Y145.21 E3.28219
G1 X110.969 Y144.992 E3.31086
G1 X110.312 Y144.826 E3.32987
G1 X109.387 Y144.568 E3.35682
G1 X108.686 Y144.348 E3.37744
G1 X108.049 Y144.13 E3.39634
G1 X107.442 Y143.907 E3.41448
G1 X106.465 Y143.514 E3.44404
G1 X105.985 Y143.305 E3.45873
G1 X104.668 Y142.678 E3.49966
G1 X104.057 Y142.355 E3.51906
G1 X103.173 Y141.857 E3.54753
G1 X102.548 Y141.478 E3.56804
G1 X102.017 Y141.139 E3.58572
G1 X101.458 Y140.765 E3.6046
G1 X100.632 Y140.172 E3.63313
G1 X100.021 Y139.705 E3.65472
G1 X99.312 Y139.127 E3.68039
G1 X98.551 Y138.463 E3.70873
G1 X97.775 Y137.738 E3.73853
G1 X97.316 Y137.277 E3.75679
G1 X96.844 Y136.785 E3.77592
G1 X96.374 Y136.271 E3.79547
G1 X95.743 Y135.533 E3.82272
G1 X95.272 Y134.949 E3.84377
G1 X94.698 Y134.195 E3.87036
G1 X94.114 Y133.367 E3.8988
G1 X93.735 Y132.791 E3.91815
G1 X93.207 Y131.936 E3.94635
G1 X92.704 Y131.056 E3.97479
G1 X92.361 Y130.406 E3.99542
G1 X92.086 Y129.856 E4.01268
G1 X91.666 Y128.951 E4.04067
G1 X91.264 Y128.003 E4.06957
G1 X91.008 Y127.342 E4.08946
G1 X90.784 Y126.714 E4.10818
G1 X90.559 Y126.033 E4.1283
G1 X90.287 Y125.116 E4.15514
G1 X90.103 Y124.437 E4.17489
G1 X89.818 Y123.184 E4.21095
G1 X89.676 Y122.436 E4.23231
G1 X89.523 Y121.49 E4.25921
G1 X89.431 Y120.787 E4.2791
G1 X89.362 Y120.123 E4.29784
G1 X89.305 Y119.422 E4.31758
G1 X89.255 Y118.42 E4.34573
G1 X89.241 Y117.689 E4.36625
G1 X89.266 Y116.343 E4.40403
G1 X89.292 Y115.799 E4.41931
G1 X89.353 Y114.982 E4.4423
G1 X89.407 Y114.451 E4.45728
G1 X89.527 Y113.496 E4.48429
G1 X89.593 Y113.052 E4.49689
G1 X89.709 Y112.379 E4.51605
G1 X89.839 Y111.717 E4.53499
G1 X90.072 Y110.699 E4.56429
G1 X90.311 Y109.797 E4.59048
G1 X90.514 Y109.113 E4.6105
G1 X90.719 Y108.477 E4.62926
G1 X90.957 Y107.799 E4.64942
G1 X91.316 Y106.871 E4.67734
G1 X91.718 Y105.932 E4.70601
G1 X92.136 Y105.041 E4.73363
G1 X92.468 Y104.387 E4.75421
G1 X92.913 Y103.569 E4.78034
G1 X93.123 Y103.203 E4.79219
G1 X93.636 Y102.367 E4.81971
G1 X93.999 Y101.806 E4.83846
G1 X94.575 Y100.978 E4.86677
G1 X95.012 Y100.386 E4.88742
G1 X95.598 Y99.643 E4.91397
G1 X96.051 Y99.099 E4.93384
G1 X96.72 Y98.35 E4.96202
G1 X97.21 Y97.83 E4.98207
G0 F6000 X97.538 Y98.139
G1 F900 X98.2 Y97.48 E5.00829
G1 X98.714 Y96.996 E5.0281
G1 X99.449 Y96.347 E5.05562
G1 X100.225 Y95.708 E5.08383
G1 X100.961 Y95.143 E5.10987
G1 X101.54 Y94.728 E5.12986
G1 X102.361 Y94.172 E5.15768
G1 X102.947 Y93.803 E5.17712
G1 X103.521 Y93.46 E5.19588
G1 X104.084 Y93.142 E5.21403
G1 X104.986 Y92.667 E5.24264
G1 X105.6 Y92.366 E5.26183
G1 X106.454 Y91.98 E5.28813
G1 X107.404 Y91.589 E5.31696
G1 X108.324 Y91.249 E5.34448
G1 X108.986 Y91.029 E5.36406
G1 X109.581 Y90.845 E5.38154
G1 X110.298 Y90.642 E5.40245
G1 X111.2 Y90.418 E5.42853
G1 X112.224 Y90.199 E5.45792
G1 X113.125 Y90.039 E5.4836
G1 X113.807 Y89.94 E5.50294
G1 X114.783 Y89.827 E5.53051
G1 X115.499 Y89.766 E5.55068
G1 X116.145 Y89.727 E5.56884
G1 X116.876 Y89.701 E5.58937
G1 X117.797 Y89.696 E5.61521
G1 X118.502 Y89.712 E5.635
G1 X119.48 Y89.765 E5.66249
G1 X120.167 Y89.822 E5.68183
G1 X121.131 Y89.933 E5.70907
G1 X121.833 Y90.034 E5.72897
G1 X122.755 Y90.196 E5.75524
G1 X123.465 Y90.341 E5.77558
G1 X124.392 Y90.563 E5.80233
G1 X125.052 Y90.739 E5.8215
G1 X125.982 Y91.021 E5.84877
G1 X126.673 Y91.252 E5.86921
G1 X127.547 Y91.574 E5.89535
G1 X128.176 Y91.826 E5.91437
G1 X129.129 Y92.245 E5.94358
G1 X130.013 Y92.669 E5.9711
G1 X130.847 Y93.107 E5.99753
G1 X131.554 Y93.51 E6.02037
G1 X132.404 Y94.03 E6.04833
G1 X132.837 Y94.31 E6.06281
G1 X133.723 Y94.92 E6.09299
G1 X134.242 Y95.302 E6.11108
G1 X134.734 Y95.682 E6.12852
G1 X135.302 Y96.143 E6.14905
G1 X136.022 Y96.765 E6.17575
G1 X136.529 Y97.229 E6.19504
G1 X137.227 Y97.907 E6.22235
G1 X137.74 Y98.438 E6.24307
G1 X138.554 Y99.34 E6.27717
G1 X139.01 Y99.885 E6.29711
G1 X139.603 Y100.635 E6.32394
G1 X140.065 Y101.258 E6.3457
G1 X140.58 Y101.996 E6.37096
G1 X140.967 Y102.59 E6.39085
G1 X141.288 Y103.109 E6.40798
G1 X141.645 Y103.716 E6.42774
G1 X142.14 Y104.622 E6.45672
G1 X142.474 Y105.279 E6.4774
G1 X142.83 Y106.037 E6.5009
G1 X143.115 Y106.689 E6.52087
G1 X143.501 Y107.658 E6.55014
G1 X143.844 Y108.611 E6.57856
G1 X144.122 Y109.48 E6.60417
G1 X144.311 Y110.142 E6.62349
G1 X144.496 Y110.858 E6.64424
G1 X144.611 Y111.351 E6.65845
G1 X144.89 Y112.731 E6.69796
G1 X145.003 Y113.436 E6.718
G1 X145.123 Y114.348 E6.74381
G1 X145.204 Y115.184 E6.76738
G1 X145.268 Y116.138 E6.79421
G1 X145.29 Y116.664 E6.80899
G1 X145.302 Y117.404 E6.82976
G1 X145.297 Y118.091 E6.84904
G1 X145.26 Y119.033 E6.87549
G1 X145.183 Y120.076 E6.90484
G1 X145.084 Y120.973 E6.93017
G1 X144.953 Y121.88 E6.95589
G1 X144.79 Y122.802 E6.98216
G1 X144.693 Y123.285 E6.99599
G1 X144.452 Y124.327 E7.026
G1 X144.283 Y124.954 E7.04422
G1 X144 Y125.908 E7.07215
G1 X143.784 Y126.562 E7.09148
G1 X143.467 Y127.436 E7.11757
G1 X143.213 Y128.076 E7.13689
G1 X142.92 Y128.76 E7.15777
G1 X142.63 Y129.397 E7.17742
G1 X142.246 Y130.175 E7.20176
G1 X141.755 Y131.089 E7.23088
G1 X141.255 Y131.947 E7.25875
G1 X140.892 Y132.527 E7.27795
G1 X140.343 Y133.35 E7.30571
G1 X139.974 Y133.868 E7.32356
G1 X139.566 Y134.414 E7.34269
G1 X139.127 Y134.973 E7.36264
G1 X138.504 Y135.716 E7.38985
G1 X138.026 Y136.255 E7.41006
G1 X137.387 Y136.932 E7.43619
G1 X136.891 Y137.426 E7.45583
G1 X136.186 Y138.089 E7.48299
G1 X135.425 Y138.754 E7.51135
G1 X134.654 Y139.382 E7.53926
G1 X134.111 Y139.796 E7.55842
G1 X133.377 Y140.326 E7.58383
G1 X132.776 Y140.731 E7.60417
G1 X131.915 Y141.276 E7.63276
G1 X131.319 Y141.626 E7.65216
G1 X130.488 Y142.085 E7.6788
G1 X129.854 Y142.408 E7.69877
G1 X129.018 Y142.807 E7.72477
G1 X128.418 Y143.071 E7.74316
G1 X127.728 Y143.355 E7.7641
G1 X127.077 Y143.604 E7.78366
G1 X126.182 Y143.914 E7.81024
G1 X125.206 Y144.216 E7.83891
G1 X124.293 Y144.464 E7.86546
G1 X123.608 Y144.626 E7.88522
G1 X122.988 Y144.758 E7.90301
G1 X122.258 Y144.896 E7.92386
G1 X121.359 Y145.035 E7.94938
G1 X120.639 Y145.128 E7.96976
G1 X119.691 Y145.219 E7.99648
G1 X119.007 Y145.265 E8.01572
G1 X118.002 Y145.301 E8.04394
G1 X117.286 Y145.306 E8.06404
G1 X116.368 Y145.282 E8.08981
G1 X115.334 Y145.221 E8.11888
G1 X114.38 Y145.131 E8.14577
G1 X113.705 Y145.046 E8.16486
G1 X112.711 Y144.891 E8.19309
G1 X112.063 Y144.77 E8.21159
G1 X111.079 Y144.556 E8.23985
G1 X110.433 Y144.393 E8.25855
G1 X109.522 Y144.139 E8.28509
G1 X108.831 Y143.922 E8.30541
G1 X108.204 Y143.708 E8.32401
G1 X107.61 Y143.49 E8.34176
G1 X106.645 Y143.101 E8.37096
G1 X106.165 Y142.892 E8.38565
G1 X104.878 Y142.28 E8.42565
G1 X104.278 Y141.963 E8.44469
G1 X103.406 Y141.472 E8.47277
G1 X102.79 Y141.099 E8.49298
G1 X102.267 Y140.765 E8.5104
G1 X101.72 Y140.399 E8.52887
G1 X100.905 Y139.815 E8.557
G1 X100.305 Y139.356 E8.5782
G1 X99.608 Y138.788 E8.60344
G1 X98.858 Y138.134 E8.63136
G1 X98.094 Y137.421 E8.66069
G1 X97.641 Y136.966 E8.67871
G1 X97.176 Y136.481 E8.69756
G1 X96.716 Y135.978 E8.71669
G1 X96.093 Y135.25 E8.74358
G1 X95.63 Y134.677 E8.76425
G1 X95.066 Y133.935 E8.79041
G1 X94.49 Y133.119 E8.81844
G1 X94.118 Y132.555 E8.8374
G1 X93.598 Y131.713 E8.86517
G1 X93.102 Y130.846 E8.8932
G1 X92.763 Y130.205 E8.91355
G1 X92.494 Y129.667 E8.93043
G1 X92.08 Y128.775 E8.95803
G1 X91.684 Y127.841 E8.9865
G1 X91.432 Y127.19 E9.00609
G1 X91.211 Y126.572 E9.02451
G1 X90.99 Y125.905 E9.04423
G1 X90.721 Y124.999 E9.07075
G1 X90.542 Y124.337 E9.09
G1 X90.26 Y123.1 E9.1256
G1 X90.12 Y122.364 E9.14663
G1 X89.969 Y121.432 E9.17312
G1 X89.879 Y120.74 E9.1927
G1 X89.811 Y120.087 E9.21113
G1 X89.754 Y119.386 E9.23087
G1 X89.705 Y118.411 E9.25826
G1 X89.691 Y117.697 E9.2783
G1 X89.716 Y116.364 E9.31572
G1 X89.741 Y115.832 E9.33066
G1 X89.801 Y115.027 E9.35332
G1 X89.853 Y114.507 E9.36798
G1 X89.972 Y113.562 E9.39471
G1 X90.036 Y113.128 E9.40702
G1 X90.15 Y112.466 E9.42588
G1 X90.278 Y111.817 E9.44444
G1 X90.507 Y110.814 E9.47331
G1 X90.742 Y109.925 E9.49912
G1 X90.942 Y109.251 E9.51885
G1 X91.144 Y108.626 E9.53728
G1 X91.377 Y107.961 E9.55705
G1 X91.73 Y107.048 E9.58452
G1 X92.125 Y106.123 E9.61275
G1 X92.537 Y105.245 E9.63997
G1 X92.864 Y104.602 E9.66021
G1 X93.303 Y103.793 E9.68604
G1 X93.507 Y103.438 E9.69753
G1 X94.014 Y102.611 E9.72475
G1 X94.368 Y102.063 E9.74306
G1 X94.937 Y101.245 E9.77103
G1 X95.365 Y100.665 E9.79125
G1 X95.944 Y99.931 E9.81749
G1 X96.387 Y99.399 E9.83692
G1 X97.048 Y98.659 E9.86476
G1 X97.538 Y98.139 E9.88481
G0 F6000 X97.855 Y98.458
G1 F900 X98.509 Y97.807 E9.91071
G1 X99.012 Y97.333 E9.93011
G1 X99.735 Y96.694 E9.95718
G1 X100.499 Y96.065 E9.98496
G1 X101.223 Y95.509 E10.01057
G1 X101.792 Y95.101 E10.03022
G1 X102.601 Y94.553 E10.05764
G1 X103.178 Y94.189 E10.07679
G1 X103.743 Y93.852 E10.09525
G1 X104.294 Y93.54 E10.11302
G1 X105.185 Y93.071 E10.14128
G1 X105.785 Y92.776 E10.16004
G1 X106.625 Y92.396 E10.18591
G1 X107.56 Y92.011 E10.21429
G1 X108.466 Y91.676 E10.2414
G1 X109.119 Y91.459 E10.26071
G1 X109.704 Y91.278 E10.27789
G1 X110.407 Y91.079 E10.2984
G1 X111.294 Y90.858 E10.32405
G1 X112.303 Y90.642 E10.35301
G1 X113.19 Y90.484 E10.37829
G1 X113.859 Y90.387 E10.39726
G1 X114.821 Y90.275 E10.42444
G1 X115.526 Y90.215 E10.4443
G1 X116.161 Y90.177 E10.46215
G1 X116.878 Y90.151 E10.48228
G1 X117.787 Y90.146 E10.50779
G1 X118.478 Y90.161 E10.52719
G1 X119.443 Y90.213 E10.55431
G1 X120.116 Y90.269 E10.57326
G1 X121.067 Y90.378 E10.60013
G1 X121.755 Y90.477 E10.61963
G1 X122.665 Y90.637 E10.64556
G1 X123.36 Y90.779 E10.66547
G1 X124.276 Y90.998 E10.6919
G1 X124.922 Y91.17 E10.71066
G1 X125.84 Y91.448 E10.73758
G1 X126.517 Y91.674 E10.75761
G1 X127.38 Y91.992 E10.78342
G1 X127.995 Y92.238 E10.802
G1 X128.934 Y92.651 E10.83079
G1 X129.818 Y93.075 E10.85831
G1 X130.624 Y93.498 E10.88385
G1 X131.319 Y93.894 E10.9063
G1 X132.16 Y94.408 E10.93396
G1 X132.582 Y94.681 E10.94806
G1 X133.456 Y95.282 E10.97783
G1 X133.967 Y95.658 E10.99563
G1 X134.45 Y96.031 E11.01276
G1 X135.008 Y96.484 E11.03293
G1 X135.718 Y97.097 E11.05925
G1 X136.216 Y97.552 E11.07818
G1 X136.904 Y98.22 E11.10509
G1 X137.406 Y98.739 E11.12536
G1 X138.209 Y99.629 E11.159
G1 X138.657 Y100.164 E11.17858
G1 X139.242 Y100.903 E11.20503
G1 X139.696 Y101.515 E11.22642
G1 X140.203 Y102.242 E11.25129
G1 X140.584 Y102.827 E11.27088
G1 X140.9 Y103.337 E11.28772
G1 X141.25 Y103.932 E11.30709
G1 X141.739 Y104.826 E11.33569
G1 X142.067 Y105.47 E11.35597
G1 X142.418 Y106.217 E11.37913
G1 X142.697 Y106.856 E11.3987
G1 X143.078 Y107.81 E11.42753
G1 X143.415 Y108.748 E11.4555
G1 X143.689 Y109.603 E11.48069
G1 X143.875 Y110.255 E11.49972
G1 X144.058 Y110.96 E11.52016
G1 X144.17 Y111.44 E11.53399
G1 X144.446 Y112.802 E11.57299
G1 X144.557 Y113.495 E11.59269
G1 X144.675 Y114.392 E11.61808
G1 X144.755 Y115.214 E11.64125
G1 X144.818 Y116.157 E11.66778
G1 X144.84 Y116.671 E11.68221
G1 X144.852 Y117.401 E11.7027
G1 X144.847 Y118.074 E11.72159
G1 X144.811 Y119 E11.7476
G1 X144.736 Y120.027 E11.77649
G1 X144.639 Y120.909 E11.80139
G1 X144.51 Y121.802 E11.82671
G1 X144.347 Y122.724 E11.85299
G1 X144.255 Y123.184 E11.86616
G1 X144.018 Y124.21 E11.89571
G1 X143.852 Y124.826 E11.91361
G1 X143.573 Y125.767 E11.94115
G1 X143.361 Y126.409 E11.96013
G1 X143.049 Y127.27 E11.98583
G1 X142.799 Y127.899 E12.00482
