;FLAVOR:Marlin
;TIME:2729
;Filament used: 1.26938m
;Layer height: 0.15
;MINX:89.157
;MINY:82.22
;MINZ:0.15
;MAXX:180.943
;MAXY:145.822
;MAXZ:3
;TARGET_MACHINE.NAME:Creality Ender-3
;Generated with Cura_SteamEngine 5.6.0
M140 S75
M105
M190 S75
M104 S235
M105
M109 S235
M82 ;absolute extrusion mode
; Ender 3 Custom Start G-code
G92 E0 ; Reset Extruder
G28 ; Home all axes
G29 ; Mesh Bed Leveling

G0 X235 Y0 Z10 F3000 ; Move To Priming Position
G0 Z2 ; Move Down
G1 E20 F1500 ;Prime The Nozzle

G0 X225 Y0 F3000 ; Move To The Left
G0 X225 Y10 ; Move To THe Front
G0 X235 Y10 ; Move To THe Right
G0 X235 Y0 ; Move To THe Back

G0 X225 Y0 ; Move To The Left
G0 X225 Y10 ; Move To THe Front
G0 X235 Y10 ; Move To THe Right
G0 X235 Y0 ; Move To THe Back

G0 X225 Y10 ; Move Over The Flap
G92 E0
G92 E0
G1 F2700 E-1
;LAYER_COUNT:20
;LAYER:0
M107
G0 F6000 X97.59 Y97.31 Z0.15
;TYPE:SKIRT
G1 F2700 E0
G1 F900 X98.474 Y96.477 E0.03409
G1 X98.877 Y96.119 E0.04921
G1 X99.653 Y95.464 E0.07771
G1 X100.028 Y95.162 E0.09122
G1 X100.61 Y94.719 E0.11175
G1 X101.354 Y94.184 E0.13747
G1 X101.854 Y93.847 E0.15439
G1 X102.75 Y93.281 E0.18413
G1 X103.453 Y92.866 E0.20704
G1 X104.065 Y92.529 E0.22665
G1 X105.117 Y91.989 E0.25983
G1 X105.738 Y91.694 E0.27912
G1 X106.577 Y91.327 E0.30482
G1 X107.015 Y91.152 E0.31806
G1 X108.045 Y90.768 E0.34891
G1 X108.52 Y90.603 E0.36302
G1 X109.304 Y90.351 E0.38613
G1 X109.832 Y90.197 E0.40156
G1 X110.707 Y89.965 E0.42697
G1 X111.835 Y89.709 E0.45943
G1 X112.421 Y89.598 E0.47617
G1 X113.372 Y89.444 E0.5032
G1 X113.81 Y89.384 E0.51561
G1 X114.75 Y89.277 E0.54216
G1 X115.486 Y89.215 E0.56289
G1 X118.468 Y89.051 E0.6467
G1 X120.977 Y88.856 E0.71732
G1 X123.431 Y88.59 E0.78659
G1 X125.98 Y88.244 E0.85878
G1 X128.406 Y87.843 E0.92778
G1 X130.929 Y87.353 E0.99991
G1 X133.325 Y86.819 E1.0688
G1 X135.768 Y86.199 E1.13953
G1 X138.232 Y85.499 E1.21142
G1 X140.581 Y84.76 E1.28052
G1 X141.795 Y84.334 E1.31663
G1 X143.855 Y83.636 E1.37767
G1 X144.544 Y83.418 E1.39795
G1 X145.472 Y83.157 E1.425
G1 X146.473 Y82.914 E1.45391
G1 X147.428 Y82.714 E1.48129
G1 X148.167 Y82.585 E1.50234
G1 X149.067 Y82.453 E1.52787
G1 X149.825 Y82.366 E1.54928
G1 X150.468 Y82.308 E1.5674
G1 X151.461 Y82.247 E1.59532
G1 X152.178 Y82.225 E1.61545
G1 X152.909 Y82.22 E1.63596
G1 X153.835 Y82.245 E1.66196
G1 X154.557 Y82.283 E1.68225
G1 X155.564 Y82.366 E1.7106
G1 X156.543 Y82.484 E1.73828
G1 X157.562 Y82.644 E1.76722
G1 X158.227 Y82.769 E1.78621
G1 X158.885 Y82.909 E1.80509
G1 X159.869 Y83.148 E1.83351
G1 X160.481 Y83.316 E1.85132
G1 X161.497 Y83.629 E1.88115
G1 X162.425 Y83.95 E1.90871
G1 X163.049 Y84.188 E1.92745
G1 X163.718 Y84.462 E1.94774
G1 X164.202 Y84.673 E1.96256
G1 X165.122 Y85.103 E1.99106
G1 X165.516 Y85.298 E2.00339
G1 X166.118 Y85.616 E2.0225
G1 X166.748 Y85.967 E2.04274
G1 X167.372 Y86.335 E2.06307
G1 X168.16 Y86.833 E2.08923
G1 X169.005 Y87.407 E2.11789
G1 X169.551 Y87.802 E2.13681
G1 X170.166 Y88.272 E2.15853
G1 X171.103 Y89.044 E2.1926
G1 X171.63 Y89.51 E2.21234
G1 X172.153 Y89.995 E2.23236
G1 X172.655 Y90.481 E2.25197
G1 X173.34 Y91.191 E2.27965
G1 X173.81 Y91.706 E2.29922
G1 X174.443 Y92.447 E2.32657
G1 X175.091 Y93.257 E2.35568
G1 X175.665 Y94.028 E2.38265
G1 X176.075 Y94.619 E2.40284
G1 X176.444 Y95.177 E2.42161
G1 X176.8 Y95.746 E2.44045
G1 X177.323 Y96.639 E2.46949
G1 X177.819 Y97.561 E2.49887
G1 X178.228 Y98.388 E2.52476
G1 X178.505 Y98.995 E2.54349
G1 X178.802 Y99.684 E2.56454
G1 X179.062 Y100.333 E2.58416
G1 X179.394 Y101.246 E2.61142
G1 X179.619 Y101.924 E2.63147
G1 X179.897 Y102.861 E2.6589
G1 X180.158 Y103.862 E2.68793
G1 X180.356 Y104.745 E2.71333
G1 X180.503 Y105.507 E2.7351
G1 X180.612 Y106.165 E2.75382
G1 X180.711 Y106.854 E2.77336
G1 X180.82 Y107.826 E2.8008
G1 X180.88 Y108.568 E2.82169
G1 X180.927 Y109.512 E2.84822
G1 X180.943 Y110.243 E2.86874
G1 X180.934 Y111.222 E2.89621
G1 X180.911 Y111.854 E2.91396
G1 X180.835 Y112.952 E2.94485
G1 X180.767 Y113.629 E2.96394
G1 X180.644 Y114.579 E2.99083
G1 X180.535 Y115.268 E3.0104
G1 X180.354 Y116.217 E3.03751
G1 X180.199 Y116.929 E3.05796
G1 X179.874 Y118.182 E3.09429
G1 X179.671 Y118.864 E3.11426
G1 X179.368 Y119.785 E3.14147
G1 X179.124 Y120.452 E3.1614
G1 X178.871 Y121.098 E3.18087
G1 X178.603 Y121.736 E3.20029
G1 X178.048 Y122.936 E3.23739
G1 X177.717 Y123.586 E3.25786
G1 X177.418 Y124.142 E3.27558
G1 X177.066 Y124.762 E3.29559
G1 X176.555 Y125.601 E3.32315
G1 X175.994 Y126.45 E3.35171
G1 X175.425 Y127.252 E3.37931
G1 X174.984 Y127.834 E3.3998
G1 X174.386 Y128.578 E3.42659
G1 X174.134 Y128.875 E3.43752
G1 X173.469 Y129.619 E3.46552
G1 X172.993 Y130.125 E3.48502
G1 X172.302 Y130.816 E3.51244
G1 X171.769 Y131.318 E3.53299
G1 X171.026 Y131.974 E3.5608
G1 X170.462 Y132.443 E3.58139
G1 X169.481 Y133.202 E3.6162
G1 X168.9 Y133.618 E3.63625
G1 X168.063 Y134.185 E3.66462
G1 X167.475 Y134.554 E3.6841
G1 X166.893 Y134.903 E3.70315
G1 X166.312 Y135.232 E3.72188
G1 X165.402 Y135.71 E3.75073
G1 X164.77 Y136.02 E3.77048
G1 X163.913 Y136.407 E3.79687
G1 X163.232 Y136.691 E3.81758
G1 X162.001 Y137.154 E3.85449
G1 X161.335 Y137.376 E3.87419
G1 X160.729 Y137.563 E3.89199
G1 X159.989 Y137.771 E3.91356
G1 X159.097 Y137.996 E3.93937
G1 X158.342 Y138.16 E3.96106
G1 X157.432 Y138.33 E3.98704
G1 X156.747 Y138.439 E4.0065
G1 X155.74 Y138.566 E4.03498
G1 X154.716 Y138.658 E4.06384
G1 X151.538 Y138.85 E4.15318
G1 X148.986 Y139.072 E4.22507
G1 X146.512 Y139.358 E4.29496
G1 X144.013 Y139.719 E4.36582
G1 X141.537 Y140.148 E4.43634
G1 X139.076 Y140.646 E4.5068
G1 X136.64 Y141.213 E4.57699
G1 X134.194 Y141.854 E4.64795
G1 X131.794 Y142.557 E4.71814
G1 X129.417 Y143.327 E4.78826
G1 X127.964 Y143.847 E4.83156
G1 X126.323 Y144.408 E4.88023
G1 X125.6 Y144.636 E4.90151
G1 X124.727 Y144.882 E4.92696
G1 X124.281 Y144.996 E4.93988
G1 X123.393 Y145.2 E4.96545
G1 X122.921 Y145.297 E4.97897
G1 X122.177 Y145.429 E5.00018
G1 X121.193 Y145.578 E5.0281
G1 X120.697 Y145.642 E5.04214
G1 X119.762 Y145.732 E5.0685
G1 X118.868 Y145.79 E5.09364
G1 X117.812 Y145.822 E5.12329
G1 X116.631 Y145.81 E5.15643
G1 X116.177 Y145.792 E5.16918
G1 X115.232 Y145.73 E5.19576
G1 X114.412 Y145.654 E5.21887
G1 X113.654 Y145.559 E5.24031
G1 X112.9 Y145.446 E5.26171
G1 X112.407 Y145.362 E5.27574
G1 X111.625 Y145.208 E5.29811
G1 X110.445 Y144.932 E5.33212
G1 X109.942 Y144.797 E5.34673
G1 X108.759 Y144.438 E5.38143
G1 X107.754 Y144.092 E5.41125
G1 X107.007 Y143.811 E5.43365
G1 X106.454 Y143.585 E5.45042
G1 X105.458 Y143.138 E5.48105
G1 X104.952 Y142.895 E5.49681
G1 X103.992 Y142.397 E5.52716
G1 X103.244 Y141.978 E5.55122
G1 X102.421 Y141.483 E5.57817
G1 X101.329 Y140.76 E5.61492
G1 X100.897 Y140.454 E5.62978
G1 X99.967 Y139.751 E5.66249
G1 X99.085 Y139.028 E5.6945
G1 X98.469 Y138.481 E5.71762
G1 X97.77 Y137.828 E5.74446
G1 X97.337 Y137.399 E5.76157
G1 X96.625 Y136.652 E5.79053
G1 X95.939 Y135.883 E5.81945
G1 X95.601 Y135.479 E5.83423
G1 X94.976 Y134.687 E5.86254
G1 X94.654 Y134.257 E5.87762
G1 X94.071 Y133.428 E5.90606
G1 X93.585 Y132.694 E5.93076
G1 X93.309 Y132.25 E5.94543
G1 X92.881 Y131.528 E5.96899
G1 X92.458 Y130.767 E5.99342
G1 X92.273 Y130.412 E6.00466
G1 X91.924 Y129.7 E6.02691
G1 X91.586 Y128.971 E6.04946
G1 X91.342 Y128.403 E6.06681
G1 X90.912 Y127.299 E6.10006
G1 X90.596 Y126.403 E6.12672
G1 X90.377 Y125.714 E6.14701
G1 X90.104 Y124.754 E6.17502
G1 X89.937 Y124.094 E6.19412
G1 X89.8 Y123.49 E6.2115
G1 X89.652 Y122.762 E6.23235
G1 X89.573 Y122.323 E6.24487
G1 X89.425 Y121.366 E6.27204
G1 X89.355 Y120.836 E6.28705
G1 X89.276 Y120.084 E6.30827
G1 X89.207 Y119.233 E6.33223
G1 X89.176 Y118.624 E6.34934
G1 X89.157 Y117.453 E6.38221
G1 X89.171 Y116.599 E6.40617
G1 X89.199 Y116.006 E6.42283
G1 X89.289 Y114.77 E6.45761
G1 X89.356 Y114.128 E6.47573
G1 X89.51 Y113.012 E6.50734
G1 X89.632 Y112.302 E6.52756
G1 X89.749 Y111.709 E6.54452
G1 X89.984 Y110.676 E6.57425
G1 X90.219 Y109.79 E6.59998
G1 X90.428 Y109.084 E6.62064
G1 X90.735 Y108.149 E6.64826
G1 X90.882 Y107.737 E6.66053
G1 X91.216 Y106.875 E6.68647
G1 X91.547 Y106.079 E6.71067
G1 X91.786 Y105.551 E6.72693
G1 X92.24 Y104.619 E6.75603
G1 X92.56 Y104.002 E6.77553
G1 X93.07 Y103.101 E6.80458
G1 X93.386 Y102.584 E6.82159
G1 X94.006 Y101.625 E6.85364
G1 X94.367 Y101.096 E6.87161
G1 X95.16 Y100.039 E6.90869
G1 X95.684 Y99.384 E6.93223
G1 X96.031 Y98.973 E6.94733
G1 X96.664 Y98.265 E6.97398
G1 X97.108 Y97.795 E6.99212
G1 X97.59 Y97.31 E7.01131
G0 F6000 X97.899 Y97.637
G1 F900 X98.773 Y96.813 E7.04502
G1 X99.167 Y96.463 E7.05981
G1 X99.935 Y95.814 E7.08803
G1 X100.3 Y95.52 E7.10118
G1 X100.873 Y95.084 E7.12139
G1 X101.605 Y94.557 E7.1467
G1 X102.095 Y94.227 E7.16328
G1 X102.979 Y93.668 E7.19263
G1 X103.67 Y93.26 E7.21515
G1 X104.271 Y92.929 E7.2344
G1 X105.31 Y92.395 E7.26719
G1 X105.918 Y92.106 E7.28608
G1 X106.744 Y91.745 E7.31138
G1 X107.172 Y91.574 E7.32431
G1 X108.193 Y91.193 E7.35489
G1 X108.658 Y91.031 E7.36871
G1 X109.43 Y90.783 E7.39147
G1 X109.947 Y90.632 E7.40658
G1 X110.807 Y90.404 E7.43155
G1 X111.919 Y90.151 E7.46355
G1 X112.493 Y90.042 E7.47995
G1 X113.433 Y89.89 E7.50667
G1 X113.861 Y89.831 E7.5188
G1 X114.788 Y89.725 E7.54498
G1 X115.511 Y89.664 E7.56534
G1 X118.503 Y89.5 E7.64943
G1 X121.012 Y89.304 E7.72006
G1 X123.492 Y89.036 E7.79006
G1 X126.041 Y88.69 E7.86225
G1 X128.492 Y88.285 E7.93197
G1 X131.015 Y87.795 E8.00409
G1 X133.433 Y87.256 E8.07362
G1 X135.892 Y86.632 E8.14481
G1 X138.355 Y85.932 E8.21667
G1 X140.73 Y85.185 E8.28654
G1 X141.939 Y84.76 E8.3225
G1 X143.991 Y84.065 E8.3833
G1 X144.666 Y83.851 E8.40317
G1 X145.578 Y83.594 E8.42976
G1 X146.565 Y83.354 E8.45827
G1 X147.505 Y83.157 E8.48522
G1 X148.232 Y83.03 E8.50593
G1 X149.118 Y82.9 E8.53106
G1 X149.866 Y82.814 E8.55219
G1 X150.495 Y82.757 E8.56991
G1 X151.475 Y82.697 E8.59747
G1 X152.181 Y82.675 E8.61729
G1 X152.897 Y82.67 E8.63738
G1 X153.812 Y82.694 E8.66307
G1 X154.52 Y82.731 E8.68297
G1 X155.51 Y82.813 E8.71084
G1 X156.474 Y82.929 E8.73809
G1 X157.479 Y83.086 E8.76664
G1 X158.134 Y83.209 E8.78534
G1 X158.779 Y83.346 E8.80385
G1 X159.75 Y83.582 E8.83189
G1 X160.362 Y83.75 E8.8497
G1 X161.35 Y84.054 E8.87871
G1 X162.264 Y84.37 E8.90585
G1 X162.879 Y84.605 E8.92432
G1 X163.538 Y84.874 E8.9443
G1 X164.012 Y85.081 E8.95881
G1 X164.922 Y85.506 E8.987
G1 X165.306 Y85.696 E8.99902
G1 X165.899 Y86.009 E9.01784
G1 X166.52 Y86.355 E9.03779
G1 X167.132 Y86.715 E9.05771
G1 X167.907 Y87.205 E9.08345
G1 X168.741 Y87.771 E9.11173
G1 X169.278 Y88.16 E9.13034
G1 X169.88 Y88.62 E9.1516
G1 X170.805 Y89.381 E9.18522
G1 X171.324 Y89.84 E9.20466
G1 X171.84 Y90.318 E9.2244
G1 X172.331 Y90.794 E9.24359
G1 X173.008 Y91.495 E9.27094
G1 X173.468 Y91.998 E9.29007
G1 X174.092 Y92.728 E9.31702
G1 X174.73 Y93.525 E9.34567
G1 X175.295 Y94.285 E9.37224
G1 X175.7 Y94.868 E9.39217
G1 X176.063 Y95.416 E9.41061
G1 X176.412 Y95.973 E9.42906
G1 X176.927 Y96.852 E9.45765
G1 X177.416 Y97.76 E9.48659
G1 X177.819 Y98.575 E9.5121
G1 X178.092 Y99.173 E9.53055
G1 X178.384 Y99.851 E9.55127
G1 X178.639 Y100.487 E9.5705
G1 X178.967 Y101.388 E9.59741
G1 X179.188 Y102.052 E9.61705
G1 X179.462 Y102.974 E9.64404
G1 X179.719 Y103.96 E9.67263
G1 X179.914 Y104.83 E9.69765
G1 X180.059 Y105.581 E9.71912
G1 X180.167 Y106.229 E9.73755
G1 X180.264 Y106.904 E9.75669
G1 X180.371 Y107.862 E9.78374
G1 X180.431 Y108.604 E9.80463
G1 X180.477 Y109.522 E9.83043
G1 X180.493 Y110.239 E9.85055
G1 X180.484 Y111.206 E9.87769
G1 X180.462 Y111.823 E9.89502
G1 X180.387 Y112.907 E9.92551
G1 X180.321 Y113.571 E9.94424
G1 X180.2 Y114.509 E9.97078
G1 X180.093 Y115.184 E9.98996
G1 X179.914 Y116.121 E10.01673
G1 X179.763 Y116.816 E10.03669
G1 X179.438 Y118.069 E10.07302
G1 X179.243 Y118.724 E10.09219
G1 X178.945 Y119.631 E10.11899
G1 X178.705 Y120.288 E10.13862
G1 X178.456 Y120.924 E10.15778
G1 X178.195 Y121.547 E10.17674
G1 X177.647 Y122.732 E10.21338
G1 X177.321 Y123.373 E10.23356
G1 X177.027 Y123.92 E10.25099
G1 X176.682 Y124.528 E10.2706
G1 X176.18 Y125.353 E10.2977
G1 X175.627 Y126.19 E10.32586
G1 X175.067 Y126.98 E10.35303
G1 X174.633 Y127.552 E10.37318
G1 X174.043 Y128.287 E10.39963
G1 X173.799 Y128.575 E10.41023
G1 X173.141 Y129.311 E10.43793
G1 X172.665 Y129.817 E10.45743
G1 X171.993 Y130.489 E10.4841
G1 X171.471 Y130.981 E10.50423
G1 X170.738 Y131.628 E10.53166
G1 X170.187 Y132.087 E10.55179
G1 X169.219 Y132.836 E10.58614
G1 X168.648 Y133.245 E10.60585
G1 X167.823 Y133.804 E10.63381
G1 X167.244 Y134.168 E10.65301
G1 X166.671 Y134.511 E10.67175
G1 X166.09 Y134.84 E10.69048
G1 X165.203 Y135.306 E10.7186
G1 X164.585 Y135.61 E10.73793
G1 X163.739 Y135.992 E10.76398
G1 X163.074 Y136.27 E10.78421
G1 X161.859 Y136.727 E10.82064
G1 X161.202 Y136.946 E10.84007
G1 X160.607 Y137.13 E10.85755
G1 X159.879 Y137.335 E10.87877
G1 X159.001 Y137.556 E10.90418
G1 X158.259 Y137.718 E10.9255
G1 X157.361 Y137.886 E10.95113
G1 X156.691 Y137.993 E10.97017
G1 X155.7 Y138.118 E10.99821
G1 X154.689 Y138.209 E11.02669
G1 X151.509 Y138.401 E11.1161
G1 X148.934 Y138.625 E11.18863
G1 X146.46 Y138.911 E11.25852
G1 X143.94 Y139.275 E11.32998
G1 X141.448 Y139.707 E11.40095
G1 X138.987 Y140.205 E11.47142
G1 X136.533 Y140.776 E11.54212
G1 X134.068 Y141.422 E11.61363
G1 X131.661 Y142.127 E11.68402
G1 X129.265 Y142.903 E11.7547
G1 X127.818 Y143.421 E11.79783
G1 X126.187 Y143.979 E11.84621
G1 X125.478 Y144.203 E11.86707
G1 X124.616 Y144.446 E11.8922
G1 X124.18 Y144.557 E11.90483
G1 X123.302 Y144.759 E11.93011
G1 X122.842 Y144.854 E11.9433
G1 X122.109 Y144.984 E11.96419
G1 X121.136 Y145.132 E11.99181
G1 X120.654 Y145.194 E12.00544
G1 X119.733 Y145.283 E12.03141
G1 X118.854 Y145.34 E12.05613
G1 X117.817 Y145.372 E12.08525
G1 X116.648 Y145.36 E12.11805
G1 X116.206 Y145.343 E12.13047
G1 X115.274 Y145.282 E12.15668
G1 X114.468 Y145.207 E12.17939
G1 X113.72 Y145.114 E12.20055
G1 X112.976 Y145.003 E12.22166
G1 X112.494 Y144.92 E12.23538
G1 X111.712 Y144.766 E12.25775
G1 X110.561 Y144.497 E12.29092
G1 X110.072 Y144.366 E12.30513
G1 X108.906 Y144.013 E12.33932
G1 X107.913 Y143.671 E12.36879
G1 X107.177 Y143.394 E12.39086
G1 X106.638 Y143.174 E12.4072
G1 X105.653 Y142.732 E12.43749
G1 X105.147 Y142.489 E12.45325
G1 X104.212 Y142.004 E12.48281
G1 X103.476 Y141.592 E12.50648
G1 X102.653 Y141.097 E12.53343
G1 X101.589 Y140.393 E12.56923
G1 X101.168 Y140.095 E12.58371
G1 X100.252 Y139.403 E12.61592
G1 X99.384 Y138.692 E12.64741
G1 X98.776 Y138.152 E12.67023
G1 X98.087 Y137.508 E12.6967
G1 X97.663 Y137.088 E12.71345
G1 X96.961 Y136.352 E12.74199
G1 X96.284 Y135.594 E12.77051
G1 X95.954 Y135.2 E12.78493
G1 X95.336 Y134.417 E12.81293
G1 X95.022 Y133.998 E12.82762
G1 X94.446 Y133.18 E12.8557
G1 X93.967 Y132.456 E12.88006
G1 X93.696 Y132.021 E12.89444
G1 X93.274 Y131.309 E12.91767
G1 X92.857 Y130.559 E12.94175
G1 X92.677 Y130.214 E12.95267
G1 X92.332 Y129.511 E12.97465
G1 X91.999 Y128.793 E12.99686
G1 X91.761 Y128.24 E13.01375
G1 X91.336 Y127.149 E13.04661
G1 X91.025 Y126.267 E13.07286
G1 X90.81 Y125.591 E13.09276
G1 X90.54 Y124.644 E13.1204
G1 X90.376 Y123.994 E13.13921
G1 X90.241 Y123.4 E13.15631
G1 X90.095 Y122.682 E13.17687
G1 X90.018 Y122.254 E13.18907
G1 X89.871 Y121.308 E13.21594
G1 X89.803 Y120.789 E13.23063
G1 X89.725 Y120.048 E13.25154
G1 X89.656 Y119.197 E13.2755
G1 X89.626 Y118.617 E13.29179
G1 X89.607 Y117.46 E13.32427
G1 X89.621 Y116.62 E13.34784
G1 X89.648 Y116.039 E13.36417
G1 X89.737 Y114.816 E13.39858
G1 X89.802 Y114.19 E13.41624
G1 X89.956 Y113.074 E13.44786
G1 X90.074 Y112.389 E13.46736
G1 X90.188 Y111.809 E13.48395
G1 X90.419 Y110.791 E13.51325
G1 X90.65 Y109.918 E13.53859
G1 X90.856 Y109.224 E13.5589
G1 X91.159 Y108.3 E13.58619
G1 X91.302 Y107.899 E13.59814
G1 X91.631 Y107.048 E13.62374
G1 X91.957 Y106.265 E13.64755
G1 X92.191 Y105.748 E13.66347
G1 X92.645 Y104.816 E13.69257
G1 X92.952 Y104.224 E13.71128
G1 X93.462 Y103.323 E13.74033
G1 X93.764 Y102.828 E13.75661
G1 X94.378 Y101.878 E13.78835
G1 X94.727 Y101.366 E13.80574
G1 X95.511 Y100.32 E13.84242
G1 X96.028 Y99.674 E13.86564
G1 X96.366 Y99.273 E13.88036
G1 X96.991 Y98.574 E13.90668
G1 X97.427 Y98.112 E13.9245
G1 X97.899 Y97.637 E13.94329
G0 F6000 X98.208 Y97.964
G1 F900 X99.072 Y97.149 E13.97663
G1 X99.457 Y96.807 E13.99108
